!!!COM: Palestrina, Giovanni Perluigi da
!!!OPR: Missa O sacrum convivium
!!!OMD: Kyrie
!!!OTL: First Section
**kern	**kern	**kern	**kern	**kern
*Ibass	*Itenor	*Itenor	*Icalto	*Icant
!Bassus	!Tenor 2	!Tenor 1	!Altus	!Cantus
*clefF4	*clefGv2	*clefGv2	*clefG2	*clefG2
*k[b-]	*k[b-]	*k[b-]	*k[b-]	*k[b-]
*F:ion	*F:ion	*F:ion	*F:ion	*F:ion
*M4/2	*M4/2	*M4/2	*M4/2	*M4/2
=1	=1	=1	=1	=1
0r	0r	1F	1c	0f
.	.	[1B-	[1d	.
=2	=2	=2	=2	=2
0r	1F	2B-]	2d]	0f
.	.	2A	2c	.
.	1B-	4B-	4d	.
.	.	4c	4e	.
.	.	4d	4f	.
.	.	4e	4g	.
=3	=3	=3	=3	=3
0r	2A	2.f	2a	1f
.	4B-	.	4d	.
.	4c	4e	4e	.
.	4d	1d	4f	1f
.	4e	.	4g	.
.	[2f	.	4a	.
.	.	.	4b-	.
=4	=4	=4	=4	=4
1r	2f]	1c	1cc	1g
.	4e	.	.	.
.	4d	.	.	.
1C	1e	1c	2r	1g
.	.	.	[2cc	.
=5	=5	=5	=5	=5
1F	2f	1c	4cc]	2.a
.	.	.	4b-	.
.	2F	.	2a	.
.	.	.	.	4b-
2E	2G	1c	2g	[1cc
4F	[2A	.	2f	.
4G	.	.	.	.
=6	=6	=6	=6	=6
4A	2A]	1c	2.e	1cc]
4B-	.	.	.	.
1c	2A	.	.	.
.	.	.	4f	.
.	1G	2d	[1g	1r
2B	.	2d	.	.
=7	=7	=7	=7	=7
1c	2r	2.e	1g]	0cc
.	1c	.	.	.
.	.	8f	.	.
.	.	8g	.	.
2.A	.	1a	1r	.
.	[2f	.	.	.
4B	.	.	.	.
=8	=8	=8	=8	=8
1c	2f]	1g	2r	0cc
.	2e	.	2c	.
1r	4f	1r	1f	.
.	4g	.	.	.
.	4a	.	.	.
.	4f	.	.	.
=9	=9	=9	=9	=9
0r	2g	0r	2e	1cc
.	2a	.	4f	.
.	.	.	4g	.
.	2f	.	4a	1cc
.	.	.	4b-	.
.	2a	.	[2cc	.
=10	=10	=10	=10	=10
0r	0g	0G	2cc]	1dd
.	.	.	4b	.
.	.	.	4a	.
.	.	.	1b	1dd
=11	=11	=11	=11	=11
0C	2.e	0c	2cc	0ee
.	.	.	4c	.
.	4f	.	4d	.
.	2g	.	4e	.
.	.	.	4f	.
.	2g	.	4g	.
.	.	.	4e	.
=12	=12	=12	=12	=12
0F	2c	1A	4f	0r
.	.	.	4g	.
.	4F	.	4a	.
.	4G	.	4b-	.
.	4A	4F	2cc	.
.	4B-	4G	.	.
.	4c	4A	2a	.
.	4d	4B-	.	.
=13	=13	=13	=13	=13
1E	4e	4c	1g	0cc
.	4f	4d	.	.
.	2g	2e	.	.
1F	2f	4A	2.a	.
.	.	4B-	.	.
.	[2a	[2c	.	.
.	.	.	4g	.
=14	=14	=14	=14	=14
1D	2a]	2c]	2f	0ff
.	2g	4B	2e	.
.	.	4A	.	.
1D	2f	1B	1d	.
.	2d	.	.	.
=15	=15	=15	=15	=15
2C	1g	2c	1r	1ee
2c	.	2c	.	.
2B-	2r	2d	[1f	1ff
2A	2c	[2f	.	.
=16	=16	=16	=16	=16
1B-	2d	4f]	1f]	1dd
.	.	4e	.	.
.	2.f	4d	.	.
.	.	4c	.	.
2B-	.	2d	1b-	1dd
.	4e	.	.	.
2B-	4d	2B-	.	.
.	4e	.	.	.
=17	=17	=17	=17	=17
1F	4f	1c	1a	1cc
.	4g	.	.	.
.	2a	.	.	.
1r	4g	1B-	1b-	1dd
.	4f	.	.	.
.	[2f	.	.	.
=18	=18	=18	=18	=18
0C	2f]	1r	1g	2cc
.	4e	.	.	2.cc
.	4d	.	.	.
.	1e	[1c	1g	.
.	.	.	.	8b-
.	.	.	.	8a
.	.	.	.	2g
=19	=19	=19	=19	=19
1F	1f	1c]	2f	2a
.	.	.	1a	2.ff
1D	1F	[1f	.	.
.	.	.	.	4ee
.	.	.	2a	[2dd
=20	=20	=20	=20	=20
0G	0B-	1f]	4b-	4dd]
.	.	.	4a	4cc
.	.	.	4g	4b-
.	.	.	4f	4a
.	.	1e	1g	2b-
.	.	.	.	2g
=21	=21	=21	=21	=21
1F	1A	1f	1c	1a
1BB-	1B-	1d	2d	1f
.	.	.	[2f	.
=22	=22	=22	=22	=22
0C	1G	[0c	2f]	0cc
.	.	.	4e	.
.	.	.	4d	.
.	1G	.	1e	.
=23	=23	=23	=23	=23
0F	0F	0c]	0f	0a
*-	*-	*-	*-	*-
!!!CDT: 1525/^1526/-1594/2/2
!!!OCY: Italia
!!!AGN: Mass (Parody)
!!!AST: renaissance, vocal
!!!ASW: Motet (Morales)
!!!PWK: Masses, Book 8
!!!RNB: Cadence finals: C
!!!YOR: Le Opere Complete, v. 24, p. 227
!!!YOO: Rome, Italy: Fratelli Scalera
!!!END: 1992//
!!!EED: John Miller
!!!YEC: Copyright 2000, John Miller
!!!YEN: United States of America
!!!YEM: Rights to all derivative electronic formats reserved.
!!!YEM: Refer to licensing agreement for further details.
!!!YEM: This file must be accompanied by the licensing agreement.
!!!YEM: A copy of the licensing agreement may be found at http://www.music-cog.ohio-state.edu/HumdrumDatabases/Palestrina/license.txt
!!!EMD: converted to Humdrum by Bret Aarden
